src/assets/transitions/attendance/attendanceSpacer3.svg

<svg xmlns="http://www.w3.org/2000/svg" width="900" height="200"><path fill="#3B4859" d="M0 0h900v200H0z"/><path fill="#3b4859" d="m0 146 10-1.5c10-1.5 30-4.5 50-.8 20 3.6 40 14 60 15.8s40-4.8 60-11 40-11.8 60-12.5 40 3.7 60 4.3c20 .7 40-2.3 60-3.5 20-1.1 40-.5 60 3.9 20 4.3 40 12.3 60 16.5 20 4.1 40 4.5 60 2.1 20-2.3 40-7.3 60-7.1 20 .1 40 5.5 60 5.5s40-5.4 60-6c20-.7 40 3.3 60 2.8s40-5.5 60-4.5 40 8 50 11.5l10 3.5V0H0Z"/><path fill="#394657" d="m0 118 10 4.2c10 4.1 30 12.5 50 13.1 20 .7 40-6.3 60-7.3s40 4 60 7.5 40 5.5 60 2.8c20-2.6 40-10 60-9.8s40 7.8 60 10.2c20 2.3 40-.7 60-2.5 20-1.9 40-2.5 60-7.4 20-4.8 40-13.8 60-11.3s40 16.5 60 19.3c20 2.9 40-5.5 60-11.8s40-10.7 60-11.8c20-1.2 40 .8 60 .3s40-3.5 60 1.7c20 5.1 40 18.5 50 25.1l10 6.7V0H0Z"/><path fill="#364454" d="m0 102 10-2.3c10-2.4 30-7 50-6.9 20 .2 40 5.2 60 12.2s40 16 60 15.5 40-10.5 60-17.3c20-6.9 40-10.5 60-11.7s40 .2 60 5.2 40 13.6 60 18.8 40 6.8 60 2.3 40-15.1 60-15.8 40 8.7 60 13.5 40 5.2 60 .2 40-15.4 60-20.4 40-4.6 60 1.4 40 17.6 60 22.3 40 2.3 50 1.2l10-1.2V0H0Z"/><path fill="#344252" d="m0 95 10-3.5C20 88 40 81 60 81.2c20 .1 40 7.5 60 13.1 20 5.7 40 9.7 60 8.9 20-.9 40-6.5 60-7s40 4.1 60 6.5c20 2.3 40 2.3 60 1.6 20-.6 40-2 60-1.1 20 .8 40 3.8 60 4.8s40 0 60-4.5 40-12.5 60-14.3c20-1.9 40 2.5 60 6.8s40 8.7 60 5.5 40-13.8 60-15.7c20-1.8 40 5.2 60 9.5 20 4.4 40 6 50 6.9l10 .8V0H0Z"/><path fill="#324050" d="m0 92 10-2.2c10-2.1 30-6.5 50-11.3s40-10.2 60-8.3C140 72 160 81 180 82s40-6 60-10.5 40-6.5 60-4 40 9.5 60 10.3c20 .9 40-4.5 60-5.5s40 2.4 60 1.5c20-.8 40-5.8 60-6.8s40 2 60 3.2c20 1.1 40 .5 60 3.5s40 9.6 60 7.6 40-12.6 60-17.1 40-2.9 60-.5c20 2.3 40 5.3 50 6.8l10 1.5V0H0Z"/><path fill="#303e4e" d="m0 64 10 .3c10 .4 30 1 50-.1 20-1.2 40-4.2 60-7.4 20-3.1 40-6.5 60-9s40-4.1 60 0c20 4.2 40 14.2 60 17 20 2.9 40-1.5 60-3.8q30-3.45 60-1.2c20 1.5 40 4.9 60 2.5 20-2.3 40-10.3 60-10.6 20-.4 40 7 60 8.1 20 1.2 40-3.8 60-3.8s40 5 60 5.2c20 .1 40-4.5 60-4.7s40 4.2 60 2.8c20-1.3 40-8.3 50-11.8l10-3.5V0H0Z"/><path fill="#2e3c4c" d="m0 48 10-1.8c10-1.9 30-5.5 50-6s40 2.1 60 2.1 40-2.6 60-4.8 40-3.8 60-5 40-1.8 60 1.2 40 9.6 60 10.6 40-3.6 60-7.5c20-3.8 40-6.8 60-5.3s40 7.5 60 7.3c20-.1 40-6.5 60-6.5s40 6.4 60 9.2 40 2.2 60-.8 40-8.4 60-8.5c20-.2 40 4.8 60 4.8s40-5 50-7.5l10-2.5V0H0Z"/><path fill="#2c3a4a" d="m0 15 10 1c10 1 30 3 50 5.3 20 2.4 40 5 60 6.7s40 2.3 60 1.5 40-3.2 60-3.5 40 1.3 60 1.5 40-1.2 60-1.2 40 1.4 60 .2 40-4.8 60-6.3 40-.9 60 .6 40 3.9 60 4.5c20 .7 40-.3 60-1.3s40-2 60-1.3c20 .6 40 3 60 1.6 20-1.3 40-6.3 60-8.6 20-2.4 40-2 50-1.9l10 .2V0H0Z"/></svg>

<svg id="visual" viewBox="0 0 900 200" width="900" height="200" xmlns="http://www.w3.org/2000/svg" xmlns:xlink="http://www.w3.org/1999/xlink" version="1.1"><rect x="0" y="0" width="900" height="200" fill="#3B4859"></rect><path d="M0 146L10 144.5C20 143 40 140 60 143.7C80 147.3 100 157.7 120 159.5C140 161.3 160 154.7 180 148.5C200 142.3 220 136.7 240 136C260 135.3 280 139.7 300 140.3C320 141 340 138 360 136.8C380 135.7 400 136.3 420 140.7C440 145 460 153 480 157.2C500 161.3 520 161.7 540 159.3C560 157 580 152 600 152.2C620 152.3 640 157.7 660 157.7C680 157.7 700 152.3 720 151.7C740 151 760 155 780 154.5C800 154 820 149 840 150C860 151 880 158 890 161.5L900 165L900 0L890 0C880 0 860 0 840 0C820 0 800 0 780 0C760 0 740 0 720 0C700 0 680 0 660 0C640 0 620 0 600 0C580 0 560 0 540 0C520 0 500 0 480 0C460 0 440 0 420 0C400 0 380 0 360 0C340 0 320 0 300 0C280 0 260 0 240 0C220 0 200 0 180 0C160 0 140 0 120 0C100 0 80 0 60 0C40 0 20 0 10 0L0 0Z" fill="#3b4859"></path><path d="M0 118L10 122.2C20 126.3 40 134.7 60 135.3C80 136 100 129 120 128C140 127 160 132 180 135.5C200 139 220 141 240 138.3C260 135.7 280 128.3 300 128.5C320 128.7 340 136.3 360 138.7C380 141 400 138 420 136.2C440 134.3 460 133.7 480 128.8C500 124 520 115 540 117.5C560 120 580 134 600 136.8C620 139.7 640 131.3 660 125C680 118.7 700 114.3 720 113.2C740 112 760 114 780 113.5C800 113 820 110 840 115.2C860 120.3 880 133.7 890 140.3L900 147L900 0L890 0C880 0 860 0 840 0C820 0 800 0 780 0C760 0 740 0 720 0C700 0 680 0 660 0C640 0 620 0 600 0C580 0 560 0 540 0C520 0 500 0 480 0C460 0 440 0 420 0C400 0 380 0 360 0C340 0 320 0 300 0C280 0 260 0 240 0C220 0 200 0 180 0C160 0 140 0 120 0C100 0 80 0 60 0C40 0 20 0 10 0L0 0Z" fill="#394657"></path><path d="M0 102L10 99.7C20 97.3 40 92.7 60 92.8C80 93 100 98 120 105C140 112 160 121 180 120.5C200 120 220 110 240 103.2C260 96.3 280 92.7 300 91.5C320 90.3 340 91.7 360 96.7C380 101.7 400 110.3 420 115.5C440 120.7 460 122.3 480 117.8C500 113.3 520 102.7 540 102C560 101.3 580 110.7 600 115.5C620 120.3 640 120.7 660 115.7C680 110.7 700 100.3 720 95.3C740 90.3 760 90.7 780 96.7C800 102.7 820 114.3 840 119C860 123.7 880 121.3 890 120.2L900 119L900 0L890 0C880 0 860 0 840 0C820 0 800 0 780 0C760 0 740 0 720 0C700 0 680 0 660 0C640 0 620 0 600 0C580 0 560 0 540 0C520 0 500 0 480 0C460 0 440 0 420 0C400 0 380 0 360 0C340 0 320 0 300 0C280 0 260 0 240 0C220 0 200 0 180 0C160 0 140 0 120 0C100 0 80 0 60 0C40 0 20 0 10 0L0 0Z" fill="#364454"></path><path d="M0 95L10 91.5C20 88 40 81 60 81.2C80 81.3 100 88.7 120 94.3C140 100 160 104 180 103.2C200 102.3 220 96.7 240 96.2C260 95.7 280 100.3 300 102.7C320 105 340 105 360 104.3C380 103.7 400 102.3 420 103.2C440 104 460 107 480 108C500 109 520 108 540 103.5C560 99 580 91 600 89.2C620 87.3 640 91.7 660 96C680 100.3 700 104.7 720 101.5C740 98.3 760 87.7 780 85.8C800 84 820 91 840 95.3C860 99.7 880 101.3 890 102.2L900 103L900 0L890 0C880 0 860 0 840 0C820 0 800 0 780 0C760 0 740 0 720 0C700 0 680 0 660 0C640 0 620 0 600 0C580 0 560 0 540 0C520 0 500 0 480 0C460 0 440 0 420 0C400 0 380 0 360 0C340 0 320 0 300 0C280 0 260 0 240 0C220 0 200 0 180 0C160 0 140 0 120 0C100 0 80 0 60 0C40 0 20 0 10 0L0 0Z" fill="#344252"></path><path d="M0 92L10 89.8C20 87.7 40 83.3 60 78.5C80 73.7 100 68.3 120 70.2C140 72 160 81 180 82C200 83 220 76 240 71.5C260 67 280 65 300 67.5C320 70 340 77 360 77.8C380 78.7 400 73.3 420 72.3C440 71.3 460 74.7 480 73.8C500 73 520 68 540 67C560 66 580 69 600 70.2C620 71.3 640 70.7 660 73.7C680 76.7 700 83.3 720 81.3C740 79.3 760 68.7 780 64.2C800 59.7 820 61.3 840 63.7C860 66 880 69 890 70.5L900 72L900 0L890 0C880 0 860 0 840 0C820 0 800 0 780 0C760 0 740 0 720 0C700 0 680 0 660 0C640 0 620 0 600 0C580 0 560 0 540 0C520 0 500 0 480 0C460 0 440 0 420 0C400 0 380 0 360 0C340 0 320 0 300 0C280 0 260 0 240 0C220 0 200 0 180 0C160 0 140 0 120 0C100 0 80 0 60 0C40 0 20 0 10 0L0 0Z" fill="#324050"></path><path d="M0 64L10 64.3C20 64.7 40 65.3 60 64.2C80 63 100 60 120 56.8C140 53.7 160 50.3 180 47.8C200 45.3 220 43.7 240 47.8C260 52 280 62 300 64.8C320 67.7 340 63.3 360 61C380 58.7 400 58.3 420 59.8C440 61.3 460 64.7 480 62.3C500 60 520 52 540 51.7C560 51.3 580 58.7 600 59.8C620 61 640 56 660 56C680 56 700 61 720 61.2C740 61.3 760 56.7 780 56.5C800 56.3 820 60.7 840 59.3C860 58 880 51 890 47.5L900 44L900 0L890 0C880 0 860 0 840 0C820 0 800 0 780 0C760 0 740 0 720 0C700 0 680 0 660 0C640 0 620 0 600 0C580 0 560 0 540 0C520 0 500 0 480 0C460 0 440 0 420 0C400 0 380 0 360 0C340 0 320 0 300 0C280 0 260 0 240 0C220 0 200 0 180 0C160 0 140 0 120 0C100 0 80 0 60 0C40 0 20 0 10 0L0 0Z" fill="#303e4e"></path><path d="M0 48L10 46.2C20 44.3 40 40.7 60 40.2C80 39.7 100 42.3 120 42.3C140 42.3 160 39.7 180 37.5C200 35.3 220 33.7 240 32.5C260 31.3 280 30.7 300 33.7C320 36.7 340 43.3 360 44.3C380 45.3 400 40.7 420 36.8C440 33 460 30 480 31.5C500 33 520 39 540 38.8C560 38.7 580 32.3 600 32.3C620 32.3 640 38.7 660 41.5C680 44.3 700 43.7 720 40.7C740 37.7 760 32.3 780 32.2C800 32 820 37 840 37C860 37 880 32 890 29.5L900 27L900 0L890 0C880 0 860 0 840 0C820 0 800 0 780 0C760 0 740 0 720 0C700 0 680 0 660 0C640 0 620 0 600 0C580 0 560 0 540 0C520 0 500 0 480 0C460 0 440 0 420 0C400 0 380 0 360 0C340 0 320 0 300 0C280 0 260 0 240 0C220 0 200 0 180 0C160 0 140 0 120 0C100 0 80 0 60 0C40 0 20 0 10 0L0 0Z" fill="#2e3c4c"></path><path d="M0 15L10 16C20 17 40 19 60 21.3C80 23.7 100 26.3 120 28C140 29.7 160 30.3 180 29.5C200 28.7 220 26.3 240 26C260 25.7 280 27.3 300 27.5C320 27.7 340 26.3 360 26.3C380 26.3 400 27.7 420 26.5C440 25.3 460 21.7 480 20.2C500 18.7 520 19.3 540 20.8C560 22.3 580 24.7 600 25.3C620 26 640 25 660 24C680 23 700 22 720 22.7C740 23.3 760 25.7 780 24.3C800 23 820 18 840 15.7C860 13.3 880 13.7 890 13.8L900 14L900 0L890 0C880 0 860 0 840 0C820 0 800 0 780 0C760 0 740 0 720 0C700 0 680 0 660 0C640 0 620 0 600 0C580 0 560 0 540 0C520 0 500 0 480 0C460 0 440 0 420 0C400 0 380 0 360 0C340 0 320 0 300 0C280 0 260 0 240 0C220 0 200 0 180 0C160 0 140 0 120 0C100 0 80 0 60 0C40 0 20 0 10 0L0 0Z" fill="#2c3a4a"></path></svg>
